X: 7
T:O'Brien's March (#57)
M:6/8
L:1/8
S:O'Farrell's Pocket Companion 1804-1810
R:March
K:G
B3 AGA|B2 G g2 e|dBG E2 D|EAA A2 c|
BGG AGG|BGG g2 e|dBG E2 D|EGG G2||
d|gfg agf|gfe dBG|cBA BAG|EAA A2 D|
E/2F/2GA G2 e|dBG A2 B|DGc B2 A|B>GG G3||

